assets/logos/buscape.svg

<svg width="80" height="80" viewBox="0 0 80 80" fill="none" xmlns="http://www.w3.org/2000/svg">
<path d="M71.9999 64C71.9999 68.4183 68.4182 72 63.9999 72H16.0001C11.5818 72 8.00012 68.4183 8.00012 64V16C8.00012 11.5817 11.5818 8 16.0001 8H64C68.4182 8 71.9999 11.5817 71.9999 16V64Z" fill="#FACC10"/>
<path fill-rule="evenodd" clip-rule="evenodd" d="M29.7295 16.001L29.6224 16L29.5295 16.0008C26.4674 16.0504 24.0001 18.5486 24.0001 21.6229V47.9984L24.0022 48.263C24.1435 56.9783 31.252 64 40.0001 64C48.8317 64 55.9921 56.8438 56.0001 48.0128C55.9921 39.2076 49.9877 31.9968 41.429 31.9968C37.5133 31.9968 34.3826 33.5478 32.2971 36.0895L35.1227 22.7918L35.1438 22.6879C35.8063 19.2633 33.2172 16.0652 29.7295 16.001ZM40.0017 39.996C35.5835 39.996 32.0017 43.5781 32.0017 47.9968C32.0017 52.4155 35.5835 55.9976 40.0017 55.9976C44.4183 55.9976 48.0017 52.4155 48.0017 47.9968C48.0017 43.5781 44.42 39.996 40.0017 39.996Z" fill="black"/>
<path d="M60.0001 24.0011C60.0001 26.2098 58.2003 28 55.9797 28H42.6156C41.1703 28 40.0001 26.8345 40.0001 25.3985C40.0001 24.1701 40.8644 23.1092 42.0718 22.8533L55.1446 20.0891C57.6452 19.5595 60.0001 21.4575 60.0001 24.0011Z" fill="#FF511C"/>
</svg>

<svg xmlns="http://www.w3.org/2000/svg" width="80" height="80" fill="none" viewBox="0 0 80 80"><path fill="#facc10" d="M72 64a8 8 0 0 1-8 8H16a8 8 0 0 1-8-8V16a8 8 0 0 1 8-8h48a8 8 0 0 1 8 8z"/><path fill="#000" fill-rule="evenodd" d="M29.73 16.001 29.622 16h-.093A5.623 5.623 0 0 0 24 21.624v26.375l.002.265C24.144 56.978 31.252 64 40 64c8.832 0 15.992-7.156 16-15.987-.008-8.805-6.012-16.016-14.571-16.016-3.916 0-7.046 1.55-9.132 4.093l2.826-13.298.02-.104c.663-3.425-1.926-6.623-5.413-6.687m10.272 23.995a8 8 0 0 0-8 8 8 8 0 1 0 8-8" clip-rule="evenodd"/><path fill="#ff511c" d="M60 24.001C60 26.21 58.2 28 55.98 28H42.616A2.61 2.61 0 0 1 40 25.398c0-1.228.864-2.289 2.072-2.545l13.073-2.764c2.5-.53 4.855 1.369 4.855 3.912"/></svg>
